X:1
T:Title
%%score { 1 | ( 2 3 ) }
L:1/8
Q:1/4=92
M:4/4
K:F
V:1 treble nm="Grand Piano"
V:2 bass 
V:3 bass 
V:1
 F>F F>F F>G A2 | G2 F>D C4 | F>F F>F G>A B2 | A2 G>F F4 | F>F F>F F>G A2 | G2 F>D C4 | %6
w: P.~W.~Hill * * * * * *||||||
[M:9/8] F>FF- F/F<GA/ B3 |[M:4/4] A2 G>F F4 | c d2 c c A2 A | [CGB]>[CGB] [CFA]>[CFA] [CEG]2 z2 | %10
w: ||||
 [CFA] [CAc]2 [CGB] [CFA] [A,F]2 [A,F] | [CFA]2 .[B,EG]2 [A,CF]4 |] %12
w: ||
V:2
 [F,A,C]2 [F,A,C]2 [F,A,C]2 [F,A,C]2 | [E,B,]2 [F,A,]>[F,B,] [F,A,]4 | %2
 [F,A,C]2 [F,A,C]2 [E,B,]>[F,A,C] [F,B,D]2 | [C,F,C]2 [C,E,B,C]2 [F,A,C]4 | %4
 [F,A,C]2 [F,A,C]2 [F,A,C]2 [F,A,C]2 | [E,B,]2 [F,A,]>[F,B,] [F,A,]4 | %6
[M:9/8] [F,A,C]2 [F,A,C]- [F,A,C][E,B,]>[F,A,C] [F,B,D]3 |[M:4/4] [C,F,C]2 [C,E,B,C]2 [F,A,C]4 | %8
 [F,A,F] [F,B,F]2 [F,A,F] [F,A,F] [F,CF]2 [F,CF] | E,>E, F,>F, C,2 z2 | F, F,2 F, F, F,2 F, | %11
 C,2 z C F,4 |] %12
V:3
 x8 | x8 | x8 | x8 | x8 | x8 |[M:9/8] x9 |[M:4/4] x8 | x8 | x8 | x8 | z2 C,2 z4 |] %12

